X: 1
T: Netherbow
C: James Craigie
R: strathspey
Z: 2021 John Chambers <jc:trillian.mit.edu>
S: handout for online BSFC workshop by Douglas Montgomery 2021-2-22
M: C
L: 1/8
K: Ador
[| "Am"A>B AG  A2 ge  | "G"d>e dB  G>d BG  | "Am"A>B A2  "G"GA g>e |    dB  G>B "Am"B<A A2 ||
|| "Am"A>B AG  A2 ge  | "G"d>e dB  G>d Bd  | "Em"e>f g<e "D"a2 g>e | "G"d<B g>B "Am"B<A A2 |]
[| "Am"e<a a>b a2 g>e | "G"d>e g>a g>e d<B | "Am"A<a a>b    a2 g>e | "G"d<B gB  "Am"BA  A2 ||
|| "Am"e<a a>b a2 g>e | "G"d>e g>a b>a g>d | "Em"e>d ef     gb ad' |"Em"g>d e<g "Am"A<B A2 |]
